svgs/sharp-solid/circle-info.svg

<svg xmlns="http://www.w3.org/2000/svg" viewBox="0 0 512 512"><!--! Font Awesome Pro 6.6.0 by @fontawesome - https://fontawesome.com License - https://fontawesome.com/license (Commercial License) Copyright 2024 Fonticons, Inc. --><path d="M256 512A256 256 0 1 0 256 0a256 256 0 1 0 0 512zM216 336l24 0 0-64-24 0-24 0 0-48 24 0 48 0 24 0 0 24 0 88 8 0 24 0 0 48-24 0-80 0-24 0 0-48 24 0zm72-144l-64 0 0-64 64 0 0 64z"/></svg>

<svg xmlns="http://www.w3.org/2000/svg" viewBox="0 0 512 512"><!--! Font Awesome Pro 6.4.2 by @fontawesome - https://fontawesome.com License - https://fontawesome.com/license (Commercial License) Copyright 2023 Fonticons, Inc. --><path d="M256 512A256 256 0 1 0 256 0a256 256 0 1 0 0 512zM216 336h24V272H216 192V224h24 48 24v24 88h8 24v48H296 216 192V336h24zm72-144H224V128h64v64z"/></svg>
